X: 31462
T: Paddy Taylor's
R: jig
M: 6/8
K: Amajor
AG|E3 ~d3|Bee Bcd|BcA GED|B,CA, EDE|
EeB ~d3|efe ded|BcA GED|EDE A2:|
e|~c2A BAG|ABA GED|B,CA, EDE|ABA GED|
~c2A BAG|EAA GAB|cBA Bed|BAG A3||
ed|cEE BEE|ABA GED|B,CA, EDE|ABA GED|
~c2A BAG|EAA GAB|cBA Bed|BAG (A||"last time"A6)||

